X:582
T: ADAM HATTE SIEBEN SOEHN
N: E1890
O: Europa, Mitteleuropa, Deutschland, Rheinland, Bonn; Hessen, Odenwald
R: Kinder - Lied, Nachahmungs - Spiel
M: 2/4
L: 1/16
K: C
 | C2C2C2C2 | B,2A,2G,4 |
A,2A,2B,2B,2 | C4C4 |
C2C2C2C2 | B,2A,2G,4 |
A,2A,2B,2B,2 | C4C2
CD | E2E2E2E2 | F2F2F2
FE | D2D2D2D2 | G2G2G2
E2 | C2C2B,2C2 | D4B,4 | C4z4

@@@ Tune index: 5266
